X:84
T: Xi qing fengshou hao renao
N: C0106
O: China, Hubei, Jiangling
S: I, 389]
N: 4 Saetze pro Strophe, dann ein kurzer Einschub in Klammern.
N: Neues Volkslied. - Wer solche Lieder sang, musste es den ganzen
N: Tag lang tun. Die Gutsbesitzer holten hierfuer auch, Vor-)
N: Saenger und Trommler, um so die Feldarbeit "zu effektivieren".
N: In seiner Kategorie ist dieses Lied sehr typisch.
N: Der zweite Teil des Liedes folgt aus Platzgruenden im naechsten
N: Dokument !!! Vor- und Nachspiel weggelassen. Neues Volkslied. - Wer solche
N: Lieder sang, musste es den ganzen Tag lang tun.  In seiner Kategorie ist
N: dieses Lied sehr typisch. !!!Dieses Lied war aus Platzgruenden auf 2
N: Dokumente verteilt!!! Der erste Teil war im vorherigen Dokument. Vereinzelt
N: Verzierungen.
R: Shange, Tiange, Chuan haozi, laba diao. Xin minge]
M: 2/4
L: 1/16
K: C
G3GG2A2 | c2d4A2
c2d2cdA2 | G6A2
d2d2c2d2 | G4A4
d3cA2A2 | G2G6
G3GG2A2 | c2d4A2
c2d2cdA2 | G6A2
d2d2c2d2 | G4A4
d3cA2A2 | G2G6

